X: 132
T: Red Haired Boy
C:
R: reel
Z: 2012 John Chambers <jc:trillian.mit.edu>
M: C|
L: 1/8
K: A
A2 |\
"A"EA AG AB cd | ef ec "D"d2 cd | "A"e2 A2 AB cA | BA EF "G"=G3 F |
"A"EA AG AB cd | ef ec "D"d2 cd | "A"e2 ab a=g ed | "E7"c2 A2 "A"A2 :|
|: ef |\
"G"=g2 ef gf ef | =gf ec "D"d2 cd | eA A2 AB cA | BA EF =G3 F |
"A"EA AG AB cd | ef ec "D"d2 cd | "A"e2 ab a=g ed | "E7"c2 A2 "A"A2 :|
